app/assets/img/ic-care.svg

<svg height="250" viewBox="0 0 250 250" width="250" xmlns="http://www.w3.org/2000/svg"><path d="m167.134916 125.506928c-14.159241 0-25.588989-11.388737-25.588989-25.497173 0-14.1084362 11.429748-25.4971736 25.588989-25.4971736 14.15924 0 25.503692 11.3887374 25.503692 25.4971736 0 14.108436-11.344452 25.497173-25.503692 25.497173zm-74.5019945-5.999335c-16.5230535 0-29.8609401-13.290029-29.8609401-29.7537964 0-16.4637675 13.3378866-29.7537966 29.8609401-29.7537966s29.7614035 13.2900291 29.7614035 29.7537966c0 16.4637674-13.23835 29.7537964-29.7614035 29.7537964zm-67.6329215 68.424055c4.4921846-24.844902 7.4242562-46.115981 28.3485855-54.001826 20.9243293-7.885844 65.9324125 4.644017 107.6909135 4.255388 41.758502-.388629 51.311254-11.424515 52.306904 3.552341.99565 14.976855-8.619821 21.565968-30.463362 23.425137-14.562361 1.239446-32.598391 1.859169-54.108089 1.859169l-2.404848 20.909791c-43.4262588 0-69.0162996 0-76.7701222 0-1.3616251 0 2.4908024-14.461775 1.5118211-14.461775-2.9135469 0-7.092971 14.461775-8.9041157 14.461775-9.280018 0-17.1530154.068352-17.2076872 0zm113.153269.068352c0-6.404238 0-9.811412 0-10.221523 51.222403-.55723 77.887399-6.753158 79.994989-18.587783l6.851742 28.809306z"/></svg>

<svg xmlns="http://www.w3.org/2000/svg" width="250" height="250" viewBox="0 0 250 250">
  <path fill="#000000" d="M167.134916,125.506928 C152.975675,125.506928 141.545927,114.118191 141.545927,100.009755 C141.545927,85.9013188 152.975675,74.5125814 167.134916,74.5125814 C181.294156,74.5125814 192.638608,85.9013188 192.638608,100.009755 C192.638608,114.118191 181.294156,125.506928 167.134916,125.506928 Z M92.6329215,119.507593 C76.109868,119.507593 62.7719814,106.217564 62.7719814,89.7537966 C62.7719814,73.2900291 76.109868,60 92.6329215,60 C109.155975,60 122.394325,73.2900291 122.394325,89.7537966 C122.394325,106.217564 109.155975,119.507593 92.6329215,119.507593 Z M25,187.931648 C29.4921846,163.086746 32.4242562,141.815667 53.3485855,133.929822 C74.2729148,126.043978 119.280998,138.573839 161.039499,138.18521 C202.798001,137.796581 212.350753,126.760695 213.346403,141.737551 C214.342053,156.714406 204.726582,163.303519 182.883041,165.162688 C168.32068,166.402134 150.28465,167.021857 128.774952,167.021857 L126.370104,187.931648 C82.9438452,187.931648 57.3538044,187.931648 49.5999818,187.931648 C48.2383567,187.931648 52.0907842,173.469873 51.1118029,173.469873 C48.198256,173.469873 44.0188319,187.931648 42.2076872,187.931648 C32.9276692,187.931648 25.0546718,188 25,187.931648 Z M138.153269,188 C138.153269,181.595762 138.153269,178.188588 138.153269,177.778477 C189.375672,177.221247 216.040668,171.025319 218.148258,159.190694 L225,188 L138.153269,188 Z"/>
</svg>
